outputs/icons/general/swap_round.svg

<svg xmlns="http://www.w3.org/2000/svg" width="1200" height="1200" fill="none"><path fill="#000" d="M790.79 366.522c7.87 7.874 21.335 2.297 21.335-8.839V117.518c0-6.904-5.595-12.5-12.5-12.5H559.46c-11.135 0-16.71 13.464-8.835 21.339l84.725 84.726L140.376 706.06c-19.527 19.525-19.527 51.185 0 70.71 19.525 19.525 51.184 19.525 70.71 0L706.06 281.794zM409.202 833.465c-7.875-7.875-21.339-2.3-21.339 8.835v240.165c0 6.905 5.596 12.5 12.5 12.5H640.53c11.135 0 16.71-13.46 8.835-21.335L564.64 988.9l494.975-494.974c19.525-19.526 19.525-51.184 0-70.71s-51.185-19.526-70.71 0L493.928 918.19z"/></svg>

<svg width="1200" height="1200" viewBox="0 0 1200 1200" fill="none" xmlns="http://www.w3.org/2000/svg"><path d="M790.79 366.522C798.66 374.396 812.125 368.819 812.125 357.683L812.125 117.518C812.125 110.614 806.53 105.018 799.625 105.018L559.46 105.018C548.325 105.018 542.75 118.482 550.625 126.357L635.35 211.083L140.376 706.06C120.849 725.585 120.849 757.245 140.376 776.77C159.901 796.295 191.56 796.295 211.086 776.77L706.06 281.794L790.79 366.522Z" fill="black"/><path d="M409.202 833.465C401.327 825.59 387.863 831.165 387.863 842.3L387.863 1082.465C387.863 1089.37 393.459 1094.965 400.363 1094.965L640.53 1094.965C651.665 1094.965 657.24 1081.505 649.365 1073.63L564.64 988.9L1059.615 493.926C1079.14 474.4 1079.14 442.742 1059.615 423.216C1040.09 403.69 1008.43 403.69 988.905 423.216L493.928 918.19L409.202 833.465Z" fill="black"/></svg>
